;FLAVOR:Marlin
;TIME:7049
;Filament used: 9.02902m
;Layer height: 0.2
;MINX:69.835
;MINY:77.181
;MINZ:0.2
;MAXX:163.161
;MAXY:150.879
;MAXZ:21
;Generated with Cura_SteamEngine 4.7.1
M140 S65
M105
M190 S65
M104 S180
M105
M109 S180
M82 ;absolute extrusion mode
; Ender 3 Custom Start G-code
G92 E0 ; Reset Extruder
G28 ; Home all axes
G1 Z2.0 F3000 ; Move Z Axis up little to prevent scratching of Heat Bed
G1 X0.1 Y20 Z0.3 F5000.0 ; Move to start position
G1 X0.1 Y200.0 Z0.3 F1500.0 E15 ; Draw the first line
G1 X0.4 Y200.0 Z0.3 F5000.0 ; Move to side a little
G1 X0.4 Y20 Z0.3 F1500.0 E30 ; Draw the second line
G92 E0 ; Reset Extruder
G1 Z2.0 F3000 ; Move Z Axis up little to prevent scratching of Heat Bed
G1 X5 Y20 Z0.3 F5000.0 ; Move over to prevent blob squish
G92 E0
G92 E0
G1 F2700 E-5
;LAYER_COUNT:105
;LAYER:0
M107
G0 F7500 X74.3 Y82.781 Z0.2
;TYPE:SKIRT
G1 F2700 E0
G1 F1500 X105.9 Y82.781 E1.05102
G1 X105.9 Y101.181 E1.66301
G1 X74.3 Y101.181 E2.71403
G1 X74.3 Y82.781 E3.32601
G0 F7500 X73.9 Y82.381
G1 F1500 X106.3 Y82.381 E4.40364
G1 X106.3 Y101.581 E5.04224
G1 X73.9 Y101.581 E6.11986
G1 X73.9 Y82.381 E6.75846
G0 F7500 X73.5 Y81.981
G1 F1500 X106.7 Y81.981 E7.8627
G1 X106.7 Y101.981 E8.5279
G1 X73.5 Y101.981 E9.63214
G1 X73.5 Y81.981 E10.29734
G0 F7500 X73.1 Y81.581
G1 F1500 X107.1 Y81.581 E11.42818
G1 X107.1 Y102.381 E12.11999
G1 X73.1 Y102.381 E13.25084
G1 X73.1 Y81.581 E13.94265
G0 F7500 X72.7 Y81.181
G1 F1500 X107.5 Y81.181 E15.1001
G1 X107.5 Y102.781 E15.81852
G1 X72.7 Y102.781 E16.97597
G1 X72.7 Y81.181 E17.69439
G0 F7500 X72.3 Y80.781
G1 F1500 X107.9 Y80.781 E18.87845
G1 X107.9 Y103.181 E19.62348
G1 X72.3 Y103.181 E20.80754
G1 X72.3 Y80.781 E21.55257
G0 F7500 X71.9 Y80.381
G1 F1500 X108.3 Y80.381 E22.76324
G1 X108.3 Y103.581 E23.53487
G1 X71.9 Y103.581 E24.74554
G1 X71.9 Y80.381 E25.51718
G0 F7500 X71.5 Y79.981
G1 F1500 X108.7 Y79.981 E26.75445
G1 X108.7 Y103.981 E27.5527
G1 X71.5 Y103.981 E28.78997
G1 X71.5 Y79.981 E29.58822
G0 F7500 X71.1 Y79.581
G1 F1500 X109.1 Y79.581 E30.8521
G1 X109.1 Y104.381 E31.67695
G1 X71.1 Y104.381 E32.94084
G1 X71.1 Y79.581 E33.76569
G0 F7500 X70.7 Y79.181
G1 F1500 X109.5 Y79.181 E35.05618
G1 X109.5 Y104.781 E35.90764
G1 X70.7 Y104.781 E37.19814
G1 X70.7 Y79.181 E38.04959
G1 F2700 E33.04959
G0 F7500 X74.7 Y82.316
G0 X74.7 Y83.181
;TYPE:SUPPORT
G1 F2700 E38.04959
G1 F1500 X105.5 Y83.181 E39.07401
G1 X105.5 Y100.781 E39.65939
G1 X74.7 Y100.781 E40.6838
G1 X74.7 Y83.181 E41.26918
G0 F7500 X75.1 Y83.581
G1 F1500 X105.1 Y83.581 E42.26698
G1 X105.1 Y100.381 E42.82575
G1 X75.1 Y100.381 E43.82355
G1 X75.1 Y83.581 E44.38232
G1 F2700 E39.38232
G0 F7500 X73.835 Y83.581
G0 X73.835 Y88
G0 X75.18 Y88
G1 F2700 E44.38232
G1 F1500 X105.02 Y88 E45.37481
G1 F2700 E40.37481
G0 F7500 X106.365 Y88
G0 X106.353 Y82.328
G0 X104 Y82.316
G0 X104 Y83.661
G1 F2700 E45.37481
G1 F1500 X104 Y100.301 E45.92826
G1 F2700 E40.92826
G0 F7500 X104 Y101.646
G0 X106.353 Y101.634
G0 X106.365 Y96
G0 X105.02 Y96
G1 F2700 E45.92826
G1 F1500 X75.18 Y96 E46.92074
G1 F2700 E41.92074
G0 F7500 X73.835 Y96
G0 X73.847 Y101.634
G0 X80 Y101.646
G0 X80 Y100.301
G1 F2700 E46.92074
G1 F1500 X80 Y83.661 E47.47419
G1 F2700 E42.47419
G0 F7500 X80 Y82.316
G0 X88 Y82.316
G0 X88 Y83.661
G1 F2700 E47.47419
G1 F1500 X88 Y100.301 E48.02764
G1 F2700 E43.02764
G0 F7500 X88 Y101.646
G0 X96 Y101.646
G0 X96 Y100.301
G1 F2700 E48.02764
G1 F1500 X96 Y83.661 E48.58108
G1 F2700 E43.58108
;MESH:case_bottom.stl
G0 F7500 X96 Y82.316
G0 X106.353 Y82.328
G0 X109.835 Y83.661
G0 X110.92 Y83.661
G0 X111.9 Y105.581
;TYPE:WALL-INNER
G1 F2700 E48.58108
G1 F1500 X111.9 Y78.381 E49.48576
G1 X159.1 Y78.381 E51.05564
G1 X159.1 Y105.581 E51.96031
G1 X111.9 Y105.581 E53.53019
G0 F7500 X111.5 Y105.981
G1 F1500 X111.5 Y77.981 E54.46148
G1 X159.5 Y77.981 E56.05796
G1 X159.5 Y105.981 E56.98925
G1 X111.5 Y105.981 E58.58573
G0 F7500 X111.1 Y106.381
G1 F1500 X111.1 Y77.581 E59.54362
G1 X159.9 Y77.581 E61.16672
G1 X159.9 Y106.381 E62.12461
G1 X111.1 Y106.381 E63.74771
G0 F7500 X110.7 Y106.781
;TYPE:WALL-OUTER
G1 F1500 X110.7 Y77.181 E64.73221
G1 X160.3 Y77.181 E66.38191
G1 X160.3 Y106.781 E67.36641
G1 X110.7 Y106.781 E69.01611
G0 F7500 X110.97 Y106.511
G0 X112.01 Y105.191
G0 X112.29 Y105.191
;TYPE:SKIN
G1 F1500 X112.29 Y78.771 E69.89484
G1 X158.71 Y78.771 E71.43878
G1 X158.71 Y105.191 E72.31751
G1 X112.29 Y105.191 E73.86145
G0 F7500 X112.95 Y105.03
G1 F1500 X112.449 Y104.529 E73.88501
G0 F7500 X112.449 Y103.963
G1 F1500 X113.516 Y105.03 E73.9352
G0 F7500 X114.081 Y105.03
G1 F1500 X112.449 Y103.398 E74.01197
G0 F7500 X112.449 Y102.832
G1 F1500 X114.647 Y105.03 E74.11535
G0 F7500 X115.213 Y105.03
G1 F1500 X112.449 Y102.266 E74.24536
G0 F7500 X112.449 Y101.701
G1 F1500 X115.778 Y105.03 E74.40195
G0 F7500 X116.344 Y105.03
G1 F1500 X112.449 Y101.135 E74.58516
G0 F7500 X112.449 Y100.569
G1 F1500 X116.91 Y105.03 E74.79499
G0 F7500 X117.475 Y105.03
G1 F1500 X112.449 Y100.003 E75.03142
G0 F7500 X112.449 Y99.438
G1 F1500 X118.041 Y105.03 E75.29445
G0 F7500 X118.607 Y105.03
G1 F1500 X112.449 Y98.872 E75.5841
G0 F7500 X112.449 Y98.306
G1 F1500 X119.172 Y105.03 E75.90036
G0 F7500 X119.738 Y105.03
G1 F1500 X112.449 Y97.741 E76.24321
G0 F7500 X112.449 Y97.175
G1 F1500 X120.304 Y105.03 E76.61268
G0 F7500 X120.87 Y105.03
G1 F1500 X112.449 Y96.609 E77.00878
G0 F7500 X112.449 Y96.044
G1 F1500 X121.435 Y105.03 E77.43146
G0 F7500 X122.001 Y105.03
G1 F1500 X112.449 Y95.478 E77.88075
G0 F7500 X112.449 Y94.912
G1 F1500 X122.567 Y105.03 E78.35667
G0 F7500 X123.132 Y105.03
G1 F1500 X112.449 Y94.347 E78.85917
G0 F7500 X112.449 Y93.781
G1 F1500 X123.698 Y105.03 E79.38829
G0 F7500 X124.264 Y105.03
G1 F1500 X112.449 Y93.215 E79.94403
G0 F7500 X112.449 Y92.65
G1 F1500 X124.829 Y105.03 E80.52635
G0 F7500 X125.395 Y105.03
G1 F1500 X112.449 Y92.084 E81.13529
G0 F7500 X112.449 Y91.518
G1 F1500 X125.961 Y105.03 E81.77085
G0 F7500 X126.526 Y105.03
G1 F1500 X112.449 Y90.953 E82.43299
G0 F7500 X112.449 Y90.387
G1 F1500 X127.092 Y105.03 E83.12175
G0 F7500 X127.658 Y105.03
G1 F1500 X112.449 Y89.821 E83.83713
G0 F7500 X112.449 Y89.255
G1 F1500 X128.223 Y105.03 E84.57912
G0 F7500 X128.789 Y105.03
G1 F1500 X112.449 Y88.69 E85.3477
G0 F7500 X112.449 Y88.124
G1 F1500 X129.355 Y105.03 E86.14291
G0 F7500 X129.92 Y105.03
G1 F1500 X112.449 Y87.558 E86.96471
G0 F7500 X112.449 Y86.993
G1 F1500 X130.486 Y105.03 E87.81312
G0 F7500 X131.052 Y105.03
G1 F1500 X112.449 Y86.427 E88.68815
G0 F7500 X112.449 Y85.861
G1 F1500 X131.618 Y105.03 E89.5898
G0 F7500 X132.183 Y105.03
G1 F1500 X112.449 Y85.296 E90.51803
G0 F7500 X112.449 Y84.73
G1 F1500 X132.749 Y105.03 E91.47287
G0 F7500 X133.315 Y105.03
G1 F1500 X112.449 Y84.164 E92.45435
G0 F7500 X112.449 Y83.599
G1 F1500 X133.88 Y105.03 E93.4624
G0 F7500 X134.446 Y105.03
G1 F1500 X112.449 Y83.033 E94.49707
G0 F7500 X112.449 Y82.467
G1 F1500 X135.012 Y105.03 E95.55836
G0 F7500 X135.577 Y105.03
G1 F1500 X112.449 Y81.902 E96.64623
G0 F7500 X112.449 Y81.336
G1 F1500 X136.143 Y105.03 E97.76073
G0 F7500 X136.709 Y105.03
G1 F1500 X112.449 Y80.77 E98.90184
G0 F7500 X112.449 Y80.205
G1 F1500 X137.274 Y105.03 E100.06953
G0 F7500 X137.84 Y105.03
G1 F1500 X112.449 Y79.639 E101.26385
G0 F7500 X112.449 Y79.073
G1 F1500 X138.406 Y105.03 E102.48479
G0 F7500 X138.971 Y105.03
G1 F1500 X112.871 Y78.93 E103.71245
G0 F7500 X113.437 Y78.93
G1 F1500 X139.537 Y105.03 E104.94011
G0 F7500 X140.103 Y105.03
G1 F1500 X114.003 Y78.93 E106.16778
G0 F7500 X114.568 Y78.93
G1 F1500 X140.668 Y105.03 E107.39544
G0 F7500 X141.234 Y105.03
G1 F1500 X115.134 Y78.93 E108.62311
G0 F7500 X115.7 Y78.93
G1 F1500 X141.8 Y105.03 E109.85077
G0 F7500 X142.366 Y105.03
G1 F1500 X116.266 Y78.93 E111.07843
G0 F7500 X116.831 Y78.93
G1 F1500 X142.931 Y105.03 E112.3061
G0 F7500 X143.497 Y105.03
G1 F1500 X117.397 Y78.93 E113.53376
G0 F7500 X117.963 Y78.93
G1 F1500 X144.063 Y105.03 E114.76143
G0 F7500 X144.628 Y105.03
G1 F1500 X118.528 Y78.93 E115.98909
G0 F7500 X119.094 Y78.93
G1 F1500 X145.194 Y105.03 E117.21675
G0 F7500 X145.76 Y105.03
G1 F1500 X119.66 Y78.93 E118.44442
G0 F7500 X120.225 Y78.93
G1 F1500 X146.325 Y105.03 E119.67208
G0 F7500 X146.891 Y105.03
G1 F1500 X120.791 Y78.93 E120.89975
G0 F7500 X121.357 Y78.93
G1 F1500 X147.457 Y105.03 E122.12741
G0 F7500 X148.022 Y105.03
G1 F1500 X121.922 Y78.93 E123.35507
G0 F7500 X122.488 Y78.93
G1 F1500 X148.588 Y105.03 E124.58274
G0 F7500 X149.154 Y105.03
G1 F1500 X123.054 Y78.93 E125.8104
G0 F7500 X123.619 Y78.93
G1 F1500 X149.719 Y105.03 E127.03807
G0 F7500 X150.285 Y105.03
G1 F1500 X124.185 Y78.93 E128.26573
G0 F7500 X124.751 Y78.93
G1 F1500 X150.851 Y105.03 E129.49339
G0 F7500 X151.417 Y105.03
G1 F1500 X125.316 Y78.93 E130.72108
G0 F7500 X125.882 Y78.93
G1 F1500 X151.982 Y105.03 E131.94874
G0 F7500 X152.548 Y105.03
G1 F1500 X126.448 Y78.93 E133.17641
G0 F7500 X127.014 Y78.93
G1 F1500 X153.114 Y105.03 E134.40407
G0 F7500 X153.679 Y105.03
G1 F1500 X127.579 Y78.93 E135.63174
G0 F7500 X128.145 Y78.93
G1 F1500 X154.245 Y105.03 E136.8594
G0 F7500 X154.811 Y105.03
G1 F1500 X128.711 Y78.93 E138.08706
G0 F7500 X129.276 Y78.93
G1 F1500 X155.376 Y105.03 E139.31473
G0 F7500 X155.942 Y105.03
G1 F1500 X129.842 Y78.93 E140.54239
G0 F7500 X130.408 Y78.93
G1 F1500 X156.508 Y105.03 E141.77006
G0 F7500 X157.073 Y105.03
G1 F1500 X130.973 Y78.93 E142.99772
G0 F7500 X131.539 Y78.93
G1 F1500 X157.639 Y105.03 E144.22538
G0 F7500 X158.205 Y105.03
G1 F1500 X132.105 Y78.93 E145.45305
G0 F7500 X132.67 Y78.93
G1 F1500 X158.549 Y104.809 E146.67032
G0 F7500 X158.549 Y104.243
G1 F1500 X133.236 Y78.93 E147.86096
G0 F7500 X133.802 Y78.93
G1 F1500 X158.549 Y103.678 E149.02501
G0 F7500 X158.549 Y103.112
G1 F1500 X134.367 Y78.93 E150.16246
G0 F7500 X134.933 Y78.93
G1 F1500 X158.549 Y102.546 E151.27328
G0 F7500 X158.549 Y101.981
G1 F1500 X135.499 Y78.93 E152.35751
G0 F7500 X136.065 Y78.93
G1 F1500 X158.549 Y101.415 E153.41511
G0 F7500 X158.549 Y100.849
G1 F1500 X136.63 Y78.93 E154.44611
G0 F7500 X137.196 Y78.93
G1 F1500 X158.549 Y100.284 E155.45051
G0 F7500 X158.549 Y99.718
G1 F1500 X137.762 Y78.93 E156.42829
G0 F7500 X138.327 Y78.93
G1 F1500 X158.549 Y99.152 E157.37947
G0 F7500 X158.549 Y98.586
G1 F1500 X138.893 Y78.93 E158.30403
G0 F7500 X139.459 Y78.93
G1 F1500 X158.549 Y98.021 E159.20199
G0 F7500 X158.549 Y97.455
G1 F1500 X140.024 Y78.93 E160.07335
G0 F7500 X140.59 Y78.93
G1 F1500 X158.549 Y96.889 E160.91809
G0 F7500 X158.549 Y96.324
G1 F1500 X141.156 Y78.93 E161.73622
G0 F7500 X141.721 Y78.93
G1 F1500 X158.549 Y95.758 E162.52776
G0 F7500 X158.549 Y95.192
G1 F1500 X142.287 Y78.93 E163.29268
G0 F7500 X142.853 Y78.93
G1 F1500 X158.549 Y94.627 E164.03099
G0 F7500 X158.549 Y94.061
G1 F1500 X143.418 Y78.93 E164.74271
G0 F7500 X143.984 Y78.93
G1 F1500 X158.549 Y93.495 E165.4278
G0 F7500 X158.549 Y92.93
G1 F1500 X144.55 Y78.93 E166.08629
G0 F7500 X145.115 Y78.93
G1 F1500 X158.549 Y92.364 E166.71819
G0 F7500 X158.549 Y91.798
G1 F1500 X145.681 Y78.93 E167.32346
G0 F7500 X146.247 Y78.93
G1 F1500 X158.549 Y91.233 E167.90213
G0 F7500 X158.549 Y90.667
G1 F1500 X146.813 Y78.93 E168.45418
G0 F7500 X147.378 Y78.93
G1 F1500 X158.549 Y90.101 E168.97963
G0 F7500 X158.549 Y89.535
G1 F1500 X147.944 Y78.93 E169.47846
G0 F7500 X148.51 Y78.93
G1 F1500 X158.549 Y88.97 E169.95068
G0 F7500 X158.549 Y88.404
G1 F1500 X149.075 Y78.93 E170.39631
G0 F7500 X149.641 Y78.93
G1 F1500 X158.549 Y87.838 E170.81532
G0 F7500 X158.549 Y87.273
G1 F1500 X150.207 Y78.93 E171.20772
G0 F7500 X150.772 Y78.93
G1 F1500 X158.549 Y86.707 E171.57353
G0 F7500 X158.549 Y86.141
G1 F1500 X151.338 Y78.93 E171.91271
G0 F7500 X151.904 Y78.93
G1 F1500 X158.549 Y85.576 E172.2253
G0 F7500 X158.549 Y85.01
G1 F1500 X152.469 Y78.93 E172.51128
G0 F7500 X153.035 Y78.93
G1 F1500 X158.549 Y84.444 E172.77064
G0 F7500 X158.549 Y83.879
G1 F1500 X153.601 Y78.93 E173.0034
G0 F7500 X154.166 Y78.93
G1 F1500 X158.549 Y83.313 E173.20957
G0 F7500 X158.549 Y82.747
G1 F1500 X154.732 Y78.93 E173.38911
G0 F7500 X155.298 Y78.93
G1 F1500 X158.549 Y82.182 E173.54205
G0 F7500 X158.549 Y81.616
G1 F1500 X155.864 Y78.93 E173.66836
G0 F7500 X156.429 Y78.93
G1 F1500 X158.549 Y81.05 E173.76808
G0 F7500 X158.549 Y80.485
G1 F1500 X156.995 Y78.93 E173.8412
G0 F7500 X157.561 Y78.93
G1 F1500 X158.549 Y79.919 E173.8877
G0 F7500 X158.549 Y79.353
G1 F1500 X158.126 Y78.93 E173.90759
G0 F7500 X158.126 Y78.191
G1 F2700 E168.90759
;MESH:case_top.stl
G0 F7500 X158.918 Y78.563
G0 X158.918 Y105.399
G0 X121.1 Y106.561
G0 X121.1 Y107.646
G0 X121.1 Y120.414
G0 X121.1 Y121.499
G0 X121.1 Y124.649
G0 X160.918 Y124.661
G0 X160.918 Y147.497
G0 X121.1 Y147.509
G0 X121.1 Y149.679
;TYPE:WALL-INNER
G1 F2700 E173.90759
G1 F1500 X73.9 Y149.679 E175.47747
G1 X73.9 Y122.479 E176.38215
G1 X121.1 Y122.479 E177.95203
G1 X121.1 Y124.479 E178.01855
G1 X161.1 Y124.479 E179.34895
G1 X161.1 Y147.679 E180.12059
G1 X121.1 Y147.679 E181.45099
G1 X121.1 Y149.679 E181.51751
G0 F7500 X121.5 Y150.079
G1 F1500 X73.5 Y150.079 E183.114
G1 X73.5 Y122.079 E184.04528
G1 X121.5 Y122.079 E185.64177
G1 X121.5 Y124.079 E185.70829
G1 X161.5 Y124.079 E187.0387
G1 X161.5 Y148.079 E187.83694
G1 X121.5 Y148.079 E189.16734
G1 X121.5 Y150.079 E189.23387
G0 F7500 X121.9 Y150.479
G1 F1500 X73.1 Y150.479 E190.85696
G1 X73.1 Y121.679 E191.81485
G1 X121.9 Y121.679 E193.43795
G1 X121.9 Y123.679 E193.50447
G1 X161.9 Y123.679 E194.83487
G1 X161.9 Y148.479 E195.65972
G1 X121.9 Y148.479 E196.99013
G1 X121.9 Y150.479 E197.05665
G0 F7500 X122.3 Y150.879
;TYPE:WALL-OUTER
G1 F1500 X72.7 Y150.879 E198.70635
G1 X72.7 Y121.279 E199.69085
G1 X122.3 Y121.279 E201.34055
G1 X122.3 Y123.279 E201.40707
G1 X162.3 Y123.279 E202.73748
G1 X162.3 Y148.879 E203.58894
G1 X122.3 Y148.879 E204.91934
G1 X122.3 Y150.879 E204.98586
G0 F7500 X122.03 Y150.609
G0 X120.99 Y149.289
G0 X120.71 Y149.289
;TYPE:SKIN
G1 F1500 X74.29 Y149.289 E206.5298
G1 X74.29 Y122.869 E207.40853
G1 X120.71 Y122.869 E208.95247
G1 X120.71 Y124.869 E209.01899
G1 X160.71 Y124.869 E210.34939
G1 X160.71 Y147.289 E211.09509
G1 X120.71 Y147.289 E212.42549
G1 X120.71 Y149.289 E212.49201
G1 F2700 E207.49201
G0 F7500 X120.99 Y149.289
G0 X120.926 Y149.476
G0 X75.023 Y149.569
G0 X75.023 Y149.128
G1 F2700 E212.49201
G1 F1500 X74.449 Y148.554 E212.51901
G0 F7500 X74.449 Y147.988
G1 F1500 X75.589 Y149.128 E212.57263
G0 F7500 X76.154 Y149.128
G1 F1500 X74.449 Y147.423 E212.65283
G0 F7500 X74.449 Y146.857
G1 F1500 X76.72 Y149.128 E212.75965
G0 F7500 X77.286 Y149.128
G1 F1500 X74.449 Y146.291 E212.8931
G0 F7500 X74.449 Y145.726
G1 F1500 X77.851 Y149.128 E213.05312
G0 F7500 X78.417 Y149.128
G1 F1500 X74.449 Y145.16 E213.23976
G0 F7500 X74.449 Y144.594
G1 F1500 X78.983 Y149.128 E213.45302
G0 F7500 X79.548 Y149.128
G1 F1500 X74.449 Y144.029 E213.69287
G0 F7500 X74.449 Y143.463
G1 F1500 X80.114 Y149.128 E213.95933
G0 F7500 X80.68 Y149.128
G1 F1500 X74.449 Y142.897 E214.25242
G0 F7500 X74.449 Y142.332
G1 F1500 X81.245 Y149.128 E214.57208
G0 F7500 X81.811 Y149.128
G1 F1500 X74.449 Y141.766 E214.91837
G0 F7500 X74.449 Y141.2
G1 F1500 X82.377 Y149.128 E215.29127
G0 F7500 X82.942 Y149.128
G1 F1500 X74.449 Y140.635 E215.69076
G0 F7500 X74.449 Y140.069
G1 F1500 X83.508 Y149.128 E216.11687
G0 F7500 X84.074 Y149.128
G1 F1500 X74.449 Y139.503 E216.5696
G0 F7500 X74.449 Y138.937
G1 F1500 X84.639 Y149.128 E217.04893
G0 F7500 X85.205 Y149.128
G1 F1500 X74.449 Y138.372 E217.55486
G0 F7500 X74.449 Y137.806
G1 F1500 X85.771 Y149.128 E218.08741
G0 F7500 X86.337 Y149.128
G1 F1500 X74.449 Y137.24 E218.64658
G0 F7500 X74.449 Y136.675
G1 F1500 X86.902 Y149.128 E219.23233
G0 F7500 X87.468 Y149.128
G1 F1500 X74.449 Y136.109 E219.84471
G0 F7500 X74.449 Y135.543
G1 F1500 X88.034 Y149.128 E220.4837
G0 F7500 X88.599 Y149.128
G1 F1500 X74.449 Y134.978 E221.14928
G0 F7500 X74.449 Y134.412
G1 F1500 X89.165 Y149.128 E221.84147
G0 F7500 X89.731 Y149.128
G1 F1500 X74.449 Y133.846 E222.56029
G0 F7500 X74.449 Y133.281
G1 F1500 X90.296 Y149.128 E223.30569
G0 F7500 X90.862 Y149.128
G1 F1500 X74.449 Y132.715 E224.0777
G0 F7500 X74.449 Y132.149
G1 F1500 X91.428 Y149.128 E224.87634
G0 F7500 X91.993 Y149.128
G1 F1500 X74.449 Y131.584 E225.70156
G0 F7500 X74.449 Y131.018
